img/value.svg

<svg width="35" height="16" viewBox="0 0 35 16" fill="none" xmlns="http://www.w3.org/2000/svg">
<path d="M29.1693 0.246338H5.83066C2.61048 0.246338 0 2.8511 0 6.06423V10.1806C0 13.3937 2.61048 15.9985 5.83066 15.9985H29.1693C32.3895 15.9985 35 13.3937 35 10.1806V6.06423C35 2.8511 32.3895 0.246338 29.1693 0.246338Z" fill="#BA8F6B"/>
<path d="M28.8744 0H6.12387C2.90369 0 0.293213 2.60476 0.293213 5.81789V8.89635C0.293213 12.1095 2.90369 14.7142 6.12387 14.7142H28.8744C32.0945 14.7142 34.705 12.1095 34.705 8.89635V5.81789C34.705 2.60476 32.0945 0 28.8744 0Z" fill="#FFE2A4"/>
<path d="M28.3086 0.647705H6.69285C3.56118 0.647705 1.02246 3.18087 1.02246 6.30568V7.70498C1.02246 10.8298 3.56118 13.3629 6.69285 13.3629H28.3086C31.4403 13.3629 33.979 10.8298 33.979 7.70498V6.30568C33.979 3.18087 31.4403 0.647705 28.3086 0.647705Z" fill="#F39223"/>
<path d="M28.3087 0.807633C29.7694 0.809327 31.1698 1.38918 32.2025 2.41994C33.2353 3.45071 33.816 4.84818 33.8172 6.30568V7.70658C33.8155 9.16381 33.2346 10.5609 32.202 11.5913C31.1693 12.6217 29.7692 13.2013 28.3087 13.203H6.69297C5.23226 13.2018 3.83172 12.6223 2.7987 11.5919C1.76567 10.5614 1.18454 9.16409 1.18285 7.70658V6.30568C1.18454 4.84803 1.76562 3.45056 2.7986 2.41984C3.83158 1.38913 5.23211 0.809326 6.69297 0.807633H28.3087ZM28.3087 0.487793H6.69297C5.14658 0.487793 3.66353 1.10075 2.57007 2.19181C1.4766 3.28288 0.862305 4.76268 0.862305 6.30568V7.70658C0.862305 8.47052 1.01313 9.22698 1.30617 9.93275C1.59921 10.6385 2.02872 11.2798 2.57016 11.8199C3.11161 12.36 3.75439 12.7884 4.46179 13.0806C5.16919 13.3728 5.92735 13.5231 6.69297 13.5229H28.3087C29.0742 13.5229 29.8322 13.3724 30.5394 13.0801C31.2466 12.7878 31.8892 12.3594 32.4305 11.8193C32.9718 11.2792 33.4011 10.638 33.6941 9.93238C33.987 9.22672 34.1378 8.47039 34.1378 7.70658V6.30568C34.138 5.54174 33.9874 4.78524 33.6945 4.07939C33.4017 3.37354 32.9724 2.73217 32.4311 2.19191C31.8898 1.65165 31.2471 1.22308 30.5398 0.930685C29.8325 0.638289 29.0743 0.487793 28.3087 0.487793Z" fill="#543115"/>
</svg>

<svg width="35" height="16" fill="none" xmlns="http://www.w3.org/2000/svg"><path d="M29.17.246H5.83C2.61.246 0 2.851 0 6.064v4.117c0 3.213 2.61 5.818 5.83 5.818h23.34c3.22 0 5.83-2.605 5.83-5.818V6.064C35 2.851 32.39.246 29.17.246Z" fill="#BA8F6B"/><path d="M28.874 0H6.124C2.904 0 .294 2.605.294 5.818v3.078c0 3.213 2.61 5.818 5.83 5.818h22.75c3.22 0 5.831-2.604 5.831-5.818V5.818c0-3.213-2.61-5.818-5.83-5.818Z" fill="#FFE2A4"/><path d="M28.309.648H6.693a5.664 5.664 0 0 0-5.67 5.658v1.399a5.664 5.664 0 0 0 5.67 5.658h21.616a5.664 5.664 0 0 0 5.67-5.658v-1.4a5.664 5.664 0 0 0-5.67-5.657Z" fill="#F39223"/><path d="M28.309.808a5.521 5.521 0 0 1 3.893 1.612 5.496 5.496 0 0 1 1.615 3.886v1.4a5.497 5.497 0 0 1-1.615 3.885 5.521 5.521 0 0 1-3.893 1.612H6.693a5.52 5.52 0 0 1-3.894-1.611 5.497 5.497 0 0 1-1.616-3.885V6.306A5.498 5.498 0 0 1 2.799 2.42 5.523 5.523 0 0 1 6.693.808h21.616Zm0-.32H6.693c-1.546 0-3.03.613-4.123 1.704A5.811 5.811 0 0 0 .862 6.306v1.4A5.805 5.805 0 0 0 2.57 11.82a5.83 5.83 0 0 0 4.123 1.703h21.616a5.84 5.84 0 0 0 4.122-1.704 5.817 5.817 0 0 0 1.707-4.112V6.306a5.804 5.804 0 0 0-1.707-4.114A5.83 5.83 0 0 0 28.31.488Z" fill="#543115"/></svg>
